src/Images/Icons/flashcards.svg

<?xml version="1.0" encoding="UTF-8" standalone="no"?>
<!-- Created with Inkscape (http://www.inkscape.org/) -->

<svg
   width="60mm"
   height="60mm"
   viewBox="0 0 60 60"
   version="1.1"
   id="svg5"
   inkscape:version="1.1 (c4e8f9e, 2021-05-24)"
   sodipodi:docname="flashcards.svg"
   xmlns:inkscape="http://www.inkscape.org/namespaces/inkscape"
   xmlns:sodipodi="http://sodipodi.sourceforge.net/DTD/sodipodi-0.dtd"
   xmlns="http://www.w3.org/2000/svg"
   xmlns:svg="http://www.w3.org/2000/svg">
  <sodipodi:namedview
     id="namedview7"
     pagecolor="#ffffff"
     bordercolor="#666666"
     borderopacity="1.0"
     inkscape:pageshadow="2"
     inkscape:pageopacity="0.0"
     inkscape:pagecheckerboard="0"
     inkscape:document-units="mm"
     showgrid="false"
     inkscape:zoom="0.78793242"
     inkscape:cx="61.553502"
     inkscape:cy="102.80069"
     inkscape:window-width="1304"
     inkscape:window-height="770"
     inkscape:window-x="36"
     inkscape:window-y="23"
     inkscape:window-maximized="0"
     inkscape:current-layer="layer1"
     width="50mm" />
  <defs
     id="defs2">
    <inkscape:path-effect
       effect="skeletal"
       id="path-effect1132"
       is_visible="true"
       lpeversion="1"
       pattern="M 0,4.9921382 C 0,2.2364779 2.2364779,0 4.9921382,0 c 2.7556604,0 4.9921383,2.2364779 4.9921383,4.9921382 0,2.7556604 -2.2364779,4.9921383 -4.9921383,4.9921383 C 2.2364779,9.9842765 0,7.7477986 0,4.9921382 Z"
       copytype="single_stretched"
       prop_scale="1"
       scale_y_rel="false"
       spacing="0"
       normal_offset="0"
       tang_offset="0"
       prop_units="false"
       vertical_pattern="false"
       hide_knot="false"
       fuse_tolerance="0" />
    <inkscape:path-effect
       effect="skeletal"
       id="path-effect1128"
       is_visible="true"
       lpeversion="1"
       pattern="M 0,4.9921382 C 0,2.2364779 2.2364779,0 4.9921382,0 c 2.7556604,0 4.9921383,2.2364779 4.9921383,4.9921382 0,2.7556604 -2.2364779,4.9921383 -4.9921383,4.9921383 C 2.2364779,9.9842765 0,7.7477986 0,4.9921382 Z"
       copytype="single_stretched"
       prop_scale="1"
       scale_y_rel="false"
       spacing="0"
       normal_offset="0"
       tang_offset="0"
       prop_units="false"
       vertical_pattern="false"
       hide_knot="false"
       fuse_tolerance="0" />
  </defs>
  <g
     inkscape:label="Layer 1"
     inkscape:groupmode="layer"
     id="layer1">
    <g
       id="g922">
      <path
         id="rect3062-3"
         style="color:#000000;fill:#000000;fill-rule:evenodd;stroke-width:3.77953;stroke-linecap:round;stroke-linejoin:round;stroke-dashoffset:34.0158;-inkscape-stroke:none;paint-order:stroke markers fill"
         d="M 64.753906 28.369141 A 12.37679 12.37679 0 0 0 52.375 40.740234 L 52.375 44.800781 L 49.068359 44.800781 A 12.37679 12.37679 0 0 0 36.695312 57.179688 L 36.695312 63.136719 L 30.730469 63.136719 A 12.37679 12.37679 0 0 0 18.359375 75.509766 L 18.359375 184.48047 A 12.37679 12.37679 0 0 0 30.730469 196.85352 L 165.1543 196.85352 A 12.37679 12.37679 0 0 0 177.53516 184.48047 L 177.53516 178.51562 L 183.49219 178.51562 A 12.37679 12.37679 0 0 0 195.87109 166.14453 L 195.87109 162.08398 L 199.17773 162.08398 A 12.37679 12.37679 0 0 0 211.55078 149.70508 L 211.55078 40.740234 A 12.37679 12.37679 0 0 0 199.17773 28.369141 L 64.753906 28.369141 z M 76.53125 46.742188 L 189.5918 46.742188 C 191.68566 46.742188 193.37305 48.427626 193.37305 50.521484 L 193.37305 136.76758 C 193.37305 138.86144 191.68566 140.54687 189.5918 140.54688 L 76.53125 140.54688 C 74.437392 140.54688 72.751953 138.86144 72.751953 136.76758 L 72.751953 50.521484 C 72.751953 48.427626 74.437392 46.742187 76.53125 46.742188 z "
         transform="scale(0.26458333)" />
    </g>
    <g
       transform="rotate(-90)"
       id="g2087">
      <path
         style="color:#000000;fill:none;fill-rule:evenodd;stroke-linecap:round;stroke-linejoin:round;stroke-dashoffset:34.0158;-inkscape-stroke:none;paint-order:stroke markers fill"
         d="m -36.186295,19.248785 h 22.819121 c 0.553999,0 1,0.446001 1,1 v 29.914263 c 0,0.553999 -0.446001,1 -1,1 h -22.819121 c -0.553999,0 -1,-0.446001 -1,-1 V 20.248785 c 0,-0.553999 0.446001,-1 1,-1 z"
         id="path1961" />
    </g>
  </g>
</svg>

<?xml version="1.0" encoding="UTF-8"?>
<svg width="60mm" height="60mm" version="1.1" viewBox="0 0 60 60" xmlns="http://www.w3.org/2000/svg">
<g fill="#245214">
<path transform="scale(.26458)" d="m64.754 28.369a12.377 12.377 0 0 0-12.379 12.371v4.0605h-3.3066a12.377 12.377 0 0 0-12.373 12.379v5.957h-5.9648a12.377 12.377 0 0 0-12.371 12.373v108.97a12.377 12.377 0 0 0 12.371 12.373h134.42a12.377 12.377 0 0 0 12.381-12.373v-5.9648h5.957a12.377 12.377 0 0 0 12.379-12.371v-4.0606h3.3066a12.377 12.377 0 0 0 12.373-12.379v-108.96a12.377 12.377 0 0 0-12.373-12.371h-134.42zm11.777 18.373h113.06c2.0939 0 3.7812 1.6854 3.7812 3.7793v86.246c0 2.0939-1.6874 3.7793-3.7812 3.7793h-113.06c-2.0939 0-3.7793-1.6854-3.7793-3.7793v-86.246c0-2.0939 1.6854-3.7793 3.7793-3.7793z" color="#000000" fill="#245214" fill-rule="evenodd" stroke-dashoffset="34.016" stroke-linecap="round" stroke-linejoin="round" stroke-width="3.7795" style="-inkscape-stroke:none;paint-order:stroke markers fill"/>
</g>
<g transform="rotate(-90)">
<path d="m-36.186 19.249h22.819c0.554 0 1 0.446 1 1v29.914c0 0.554-0.446 1-1 1h-22.819c-0.554 0-1-0.446-1-1v-29.914c0-0.554 0.446-1 1-1z" color="#000000" fill="none" stroke-dashoffset="34.016" stroke-linecap="round" stroke-linejoin="round" style="-inkscape-stroke:none;paint-order:stroke markers fill"/>
</g>
</svg>
